X: 3
T: Inisheer
R: waltz
M: 3/4
L: 1/8
K: Gmaj
B2 BA Bd | B2 BA Bd | E3 B AB | D3 E (3FED |B2 BA Bd | B2 BA Bd | E3 B AB | G3 :|e2 ef ed | B2 BA Bd | ef ed Bd | e3 f gf |e2 ef ed | B2 BA Bd | E3 B AB | G3 :|


Tune 211	Setting 24115

